X: 4
T: The Red-haired Lass
R: reel
M: 4/4
L: 1/8
K: Amaj
|: A2A/A/A ABcB|ABcA B~F3|EAAG ABce|1 faec dBcB:|2 afec d2cd|]
[| e/e/eae feaf|eaec d2cd|e/e/eae fefa| afec d2cd |
e/e/eae feaf|eaec d2cB|BccB cefa| afec dBcB|]


Tune 1716	Setting 15143

